X: 20534
T: John McFadden's Favourite
R: reel
M: 4/4
K: Gmajor
GBAG EGDB|GABD EA~A2|DGGF G2B/c/d|gedB cBAB|
GBAG EGDB|GABD EA~A2|DGGF G2B/c/d|gedc B/c/d ef||
gBdg bgfg|ea~a2 ea~a2|gBdg bgag|e/f/g dc B/c/d ef|
gBdg bgfg|ea~a2 ea~a2|bg f/g/a gedg|B/c/d gd egdB||

